!!!OTL: WENN DIE HOFFNUNG NICHT WAER
!!!ARE: Europa, Mitteleuropa, Deutschland, Schwaben, Ulm
!!!SCT: E1805
!!!YEM: Copyright 1995, estate of Helmut Schaffrath.
**kern
*ICvox
*Ivox
*M3/4
*k[b-]
*F:
{8cc
8cc
=1
4ff
4cc
4a
=2
2f}
{4a
=3
4b-
4g
4cc
=4
2a}
{8g
8g
=5
4g
4a
4bn
=6
2cc}
{8dd
8dd
=7
4ee
4dd
8.bn
16cc
=8
2cc}
{8.g
16g
=9
4g
4a
4b-
=10
2a}
{8.a
16a
=11
4a
4bn
4cc
=12
[2.bn
=13
4bn]
4r}
{8.cc
16cc
=14
4ff
4cc
4ee-
=15
2dd}
{8dd
8dd
=16
4cc
4g
4b-
=17
2a}
==
!!!AGN: Moral - Lied
!!!ONB: ESAC (Essen Associative Code) Database: ERK3
!!!AMT: simple triple
!!!AIN: vox
!!!EED: Helmut Schaffrath
!!!EEV: 1.0
*-
